X: 2332
T:Whalen's Breakdown
M:2/4
L:1/16
C:Don Messer
R:Breakdown
Z:abc by Chris Falt, modified by Peter Yarensky
Z:<http://tunes.nhcountrydance.com>.
K:C
e>f| "C"g2^f2 a2g2 | gage c2dc | "G7"B2G2 A2B2 | "C"cBcd e2ef |
     "C"g2^f2 a2g2 | gage c2dc | "G7"B2G2 A2B2 | "C"c4-c2 :|
|: GF | "C"E2C2 D2E2 | "F"FEFG A2dc | "G7"B2G2 A2B2 | "C"cBcd e2GF |
        "C"E2C2 D2E2 | "F"FEFG A2dc | "G7"B2G2 A2B2 | "C"c4-c2 :|]
Photo by Evelyn Roberts, 4/06, used with her permission.
